X: 30047
T: Off To The Hunt
R: jig
M: 6/8
K: Edorian
|:E3 EFA|B3 BAF|AFD FED|AFD FED|
E3 EFA|BAB dfe|BAG FGA|1 BGE EBG:|2 BGE E2^d||
|:e^de E^DE|e^de E2e|d2D DCD|AFE DEF|
G2G AGA|BAB dfe|BAG FGA|1 BGE E2^d:|2 BGE EBG||

